X: 1
T: Mulqueen's Reel
C:
R: reel
S: Roaring Jelly collection
S: printed copy at RJ practice March 2014
Z: 2014 John Chambers <jc:trillian.mit.edu>
M: C|
L: 1/8
K: D
|:\
F2EG FDDG | FDAG FDDE | F2EG FDDG | FABc dBAG | F2EG FDDG | FDAG FDDE |
F2EG FDDG | FABc [1 d2DE :|[2 d2cd |: e3e- efed | cdef g2fg | e2ef efed |
cABc d2cd | e3e- efed | cdef gefg | a~f3 g~e3 | dfec [1 d2cd :|[2 dBAG |]
